components/ui/icons/src/main/assets/mozac_error_eye_roll.svg

<svg viewBox="0 0 256 70" xmlns="http://www.w3.org/2000/svg" xmlns:xlink="http://www.w3.org/1999/xlink"><radialGradient id="a" cx="143.54" cy="81.07" gradientTransform="matrix(1 .01 0 .7 .04 23.76)" gradientUnits="userSpaceOnUse" r="146.71"><stop offset=".08" stop-color="#cdcdd4" stop-opacity="0"/><stop offset=".36" stop-color="#cdcdd4" stop-opacity=".02"/><stop offset=".65" stop-color="#cdcdd4" stop-opacity=".08"/><stop offset=".94" stop-color="#cdcdd4" stop-opacity=".18"/><stop offset="1" stop-color="#cdcdd4" stop-opacity=".2"/></radialGradient><linearGradient id="b" gradientTransform="matrix(-1 0 0 1 100.19 0)" gradientUnits="userSpaceOnUse" x1="75.92" x2="25.11" y1="60.35" y2="9.54"><stop offset="0" stop-color="#ffd567"/><stop offset="1" stop-color="#fff361"/></linearGradient><linearGradient id="c" gradientTransform="matrix(-1 0 0 1 100.19 0)" gradientUnits="userSpaceOnUse" x1=".08" x2="117.35" y1="-15.49" y2="101.78"><stop offset=".4" stop-color="#ffd567"/><stop offset=".86" stop-color="#ffc456"/><stop offset="1" stop-color="#ffbd4f"/></linearGradient><linearGradient id="d" gradientUnits="userSpaceOnUse" x1="3.98" x2="59.13" y1="6.32" y2="64.53"><stop offset=".25" stop-color="#ffd567"/><stop offset="1" stop-color="#ffa436"/></linearGradient><path d="m4.43 34.39a23.25 23.25 0 0 1 23.29-23.21l174.59.49a23.25 23.25 0 1 1 -.07 46.49l-174.6-.48a23.25 23.25 0 0 1 -23.21-23.29z" fill="url(#a)"/><path d="m142.55 24a8 8 0 0 1 -8 7.9l-31.83-.18a6.08 6.08 0 0 1 .07-12.15 5.9 5.9 0 0 1 1.46.19 5.5 5.5 0 0 1 -.16-1.41 6.27 6.27 0 0 1 9.91-5.08 10.53 10.53 0 0 1 20.68 2.73 8 8 0 0 1 7.87 8z" fill="#cdcdd4" opacity=".15"/><path d="m206.71 48.43a8.81 8.81 0 0 0 -2.19.25 9.84 9.84 0 0 0 .26-2.12 9.46 9.46 0 0 0 -14.78-7.86 15.87 15.87 0 0 0 -31.25 3.81 11.93 11.93 0 1 0 -.14 23.86l48 .27a9.11 9.11 0 1 0 .1-18.21z" fill="#cdcdd4" opacity=".15"/><path d="m50.14 3.47a31 31 0 0 1 31 31v1.26a3.67 3.67 0 0 1 -.52 7.31h-.62a31 31 0 1 1 -29.86-39.57z" fill="url(#b)"/><path d="m19.13 35.75c0-.42 0-.84 0-1.26a30.86 30.86 0 0 1 8.55-21.37 31.88 31.88 0 0 0 43.82 43.88 31 31 0 0 1 -51.17-13.92h-.71a3.68 3.68 0 0 1 -.49-7.33z" fill="url(#c)"/><path d="m61.31 26.81a1.06 1.06 0 0 0 .8-.37 4.36 4.36 0 0 1 3.23-1.44 4.27 4.27 0 0 1 3.22 1.45 1.07 1.07 0 1 0 1.59-1.45 6.45 6.45 0 0 0 -4.83-2.17 6.48 6.48 0 0 0 -4.83 2.17 1.06 1.06 0 0 0 .1 1.51 1 1 0 0 0 .72.3z" fill="#ffbd4f"/><path d="m31 19.81a1.08 1.08 0 0 0 .8-.37 4.34 4.34 0 0 1 3.2-1.44 4.29 4.29 0 0 1 3.23 1.45 1.06 1.06 0 0 0 1.5.09 1.07 1.07 0 0 0 .07-1.54 6.48 6.48 0 0 0 -4.8-2.15 6.45 6.45 0 0 0 -4.86 2.15 1.08 1.08 0 0 0 .86 1.81z" fill="#ffbd4f"/><g fill="#cc3d00"><path d="m43.85 51.9a1.65 1.65 0 0 0 1.27.71c.08 0 1.9.08 4.91.08s4.83-.08 4.9-.08a1.65 1.65 0 0 0 1.27-.71 1.62 1.62 0 0 0 .22-1.43c-.42-1.39-2.33-2-6.38-2s-5.95.59-6.39 2a1.75 1.75 0 0 0 .2 1.43z"/><path d="m59.43 31.39v1.78a1.29 1.29 0 0 0 0 .35 3.51 3.51 0 0 0 7-.35h2.3a1.75 1.75 0 1 0 0-3.49h-7.6a1.76 1.76 0 0 0 -1.7 1.71z"/><path d="m29.55 31.39v1.78a1.29 1.29 0 0 0 0 .35 3.52 3.52 0 0 0 7-.35h2.31a1.75 1.75 0 0 0 0-3.49h-7.55a1.75 1.75 0 0 0 -1.75 1.75z"/></g><path d="m30.7 39a1.17 1.17 0 0 1 -1-.63 1.15 1.15 0 0 1 .52-1.55 8.2 8.2 0 0 1 7.2-.1 1.15 1.15 0 1 1 -1 2.08 6 6 0 0 0 -5.18.07 1.11 1.11 0 0 1 -.54.13z" fill="url(#d)"/></svg>

<svg id="Layer_1" data-name="Layer 1" xmlns="http://www.w3.org/2000/svg" xmlns:xlink="http://www.w3.org/1999/xlink" viewBox="0 0 256 70"><defs><style>.cls-1{fill:url(#radial-gradient);}.cls-2{fill:#cdcdd4;opacity:0.15;}.cls-3{fill:url(#linear-gradient);}.cls-4{fill:url(#linear-gradient-2);}.cls-5{fill:#ffbd4f;}.cls-6{fill:#cc3d00;}.cls-7{fill:url(#linear-gradient-3);}</style><radialGradient id="radial-gradient" cx="143.54" cy="81.07" r="146.71" gradientTransform="matrix(1, 0.01, 0, 0.7, 0.04, 23.76)" gradientUnits="userSpaceOnUse"><stop offset="0.08" stop-color="#cdcdd4" stop-opacity="0"/><stop offset="0.36" stop-color="#cdcdd4" stop-opacity="0.02"/><stop offset="0.65" stop-color="#cdcdd4" stop-opacity="0.08"/><stop offset="0.94" stop-color="#cdcdd4" stop-opacity="0.18"/><stop offset="1" stop-color="#cdcdd4" stop-opacity="0.2"/></radialGradient><linearGradient id="linear-gradient" x1="75.92" y1="60.35" x2="25.11" y2="9.54" gradientTransform="matrix(-1, 0, 0, 1, 100.19, 0)" gradientUnits="userSpaceOnUse"><stop offset="0" stop-color="#ffd567"/><stop offset="1" stop-color="#fff361"/></linearGradient><linearGradient id="linear-gradient-2" x1="0.08" y1="-15.49" x2="117.35" y2="101.78" gradientTransform="matrix(-1, 0, 0, 1, 100.19, 0)" gradientUnits="userSpaceOnUse"><stop offset="0.4" stop-color="#ffd567"/><stop offset="0.86" stop-color="#ffc456"/><stop offset="1" stop-color="#ffbd4f"/></linearGradient><linearGradient id="linear-gradient-3" x1="3.98" y1="6.32" x2="59.13" y2="64.53" gradientUnits="userSpaceOnUse"><stop offset="0.25" stop-color="#ffd567"/><stop offset="1" stop-color="#ffa436"/></linearGradient></defs><title>fx-fenix_error_7</title><path class="cls-1" d="M4.43,34.39A23.25,23.25,0,0,1,27.72,11.18l174.59.49a23.25,23.25,0,1,1-.07,46.49l-174.6-.48A23.25,23.25,0,0,1,4.43,34.39Z"/><path class="cls-2" d="M142.55,24a8,8,0,0,1-8,7.9l-31.83-.18a6.08,6.08,0,0,1,.07-12.15,5.9,5.9,0,0,1,1.46.19,5.5,5.5,0,0,1-.16-1.41A6.27,6.27,0,0,1,114,13.27,10.53,10.53,0,0,1,134.68,16,8,8,0,0,1,142.55,24Z"/><path class="cls-2" d="M206.71,48.43a8.81,8.81,0,0,0-2.19.25,9.84,9.84,0,0,0,.26-2.12A9.46,9.46,0,0,0,190,38.7a15.87,15.87,0,0,0-31.25,3.81,11.93,11.93,0,1,0-.14,23.86l48,.27a9.11,9.11,0,1,0,.1-18.21Z"/><path class="cls-3" d="M50.14,3.47a31,31,0,0,1,31,31c0,.42,0,.84,0,1.26a3.67,3.67,0,0,1-.52,7.31H80A31,31,0,1,1,50.14,3.47Z"/><path class="cls-4" d="M19.13,35.75c0-.42,0-.84,0-1.26a30.86,30.86,0,0,1,8.55-21.37A31.88,31.88,0,0,0,71.5,57,31,31,0,0,1,20.33,43.08h-.71a3.68,3.68,0,0,1-.49-7.33Z"/><path class="cls-5" d="M61.31,26.81a1.06,1.06,0,0,0,.8-.37A4.36,4.36,0,0,1,65.34,25h0a4.27,4.27,0,0,1,3.22,1.45A1.07,1.07,0,1,0,70.15,25a6.45,6.45,0,0,0-4.83-2.17h0A6.48,6.48,0,0,0,60.49,25a1.06,1.06,0,0,0,.1,1.51A1,1,0,0,0,61.31,26.81Z"/><path class="cls-5" d="M31,19.81a1.08,1.08,0,0,0,.8-.37A4.34,4.34,0,0,1,35,18h0a4.29,4.29,0,0,1,3.23,1.45,1.06,1.06,0,0,0,1.5.09A1.07,1.07,0,0,0,39.8,18,6.48,6.48,0,0,0,35,15.85h0A6.45,6.45,0,0,0,30.14,18,1.08,1.08,0,0,0,31,19.81Z"/><path class="cls-6" d="M43.85,51.9a1.65,1.65,0,0,0,1.27.71c.08,0,1.9.08,4.91.08s4.83-.08,4.9-.08a1.65,1.65,0,0,0,1.27-.71,1.62,1.62,0,0,0,.22-1.43c-.42-1.39-2.33-2-6.38-2s-5.95.59-6.39,2A1.75,1.75,0,0,0,43.85,51.9Z"/><path class="cls-6" d="M59.43,31.39v1.78a1.29,1.29,0,0,0,0,.35,3.51,3.51,0,0,0,7-.35v0h2.3a1.75,1.75,0,1,0,0-3.49h-7.6A1.76,1.76,0,0,0,59.43,31.39Z"/><path class="cls-6" d="M29.55,31.39v1.78a1.29,1.29,0,0,0,0,.35,3.52,3.52,0,0,0,7-.35v0h2.31a1.75,1.75,0,0,0,0-3.49H31.31a1.75,1.75,0,0,0-1.75,1.75Z"/><path class="cls-7" d="M30.7,39a1.17,1.17,0,0,1-1-.63,1.15,1.15,0,0,1,.52-1.55,8.2,8.2,0,0,1,7.2-.1,1.15,1.15,0,1,1-1,2.08,6,6,0,0,0-5.18.07A1.11,1.11,0,0,1,30.7,39Z"/></svg>
